X:143
T:The Walls of Liscarroll
M:6/8
L:1/8
K:Amin
dcA AGE | GEE D2E | GEE cEE | GAB cBc |
dcA AGE | GEE D2E | GEE cGE | DED D2d ::
ded dcA | ded dcA | ced cBA | GEG cGE |
d2e fed | edc dcA | GEG cGE | DED D2d :|
